X: 3
T: The Flowers Of Red Hill
R: reel
M: 4/4
L: 1/8
K: Edor
|: BEEE dEcE | BEEE BAFA | BEEE B2ec | dBAF DEFA :||| Beee feee | Beed BdAd | Beee feee | BABc dBAd |Beee feee | Beec ddde | f2fd edBA | Beed BAFA ||


Tune 442	Setting 28674

